X:1
T:Polska i Dm efter Göran Lång, Haverö
O:Haverö, Medelpad
R:Polska
S:efter [[!Göran Lång]], Haverö
Z:Lennart Sohlmans hemsida
M:3/4
L:1/8
Q:1/4=120
K:Dm
|:a>a ga f2|Tf>e de/g/ f2|(f/g/)f/e/ de/g/ fe/d/|^c=B/c/ dd A2|\
{A}a>a ga f2|(f/g/)f/e/ de/g/ f2|(f/g/)f/e/ de/g/ fe/d/|^c=B/c/ d4:|\
|:A>^c cd de|eg fe/d/ e2|e>a eg fe/d/|^c=B/c/ dd A2|\
A>^c cd de|eg fe/d/ e2-|e>a eg fe/d/|^c=B/c/ d4:|

